X: 27829
T: Moth In The Lantern, The
R: jig
M: 6/8
K: Bminor
|:FBd ~f2|FBd ~e2|FBd ~f2|~e3 ~f2|FBd ~f2|FBd ~e2|fed ef/g/|fdc B2:|
|:FBd ~c2|dcd ~e2|FBd ~c2|dcB =c/B/G|FBd ~c2|dcd ~e2|fed efg|fdc ~B2:|
fB/B/B dB/B/|eA/A/A cA/A/|fB/B/B dB/B/|ef/f/g e/e/g|fB/B/B dB/B/|eA/A/A cA/A/|fed ef/g/|f/f/dc Bd:|

